X:36
T:Lakes of Sligo
M:2/4
Q:1/4=100
L:1/8
K:D
%%MIDI channel 1
%%MIDI program 72
%%MIDI transpose 8
%%MIDI grace 1/8
%%MIDI ratio 3 1
A/G/|FA AB/c/|d>e d>c|BG Bd|e>d ef|FA AB/c/|d>e f>e|dB Af|e2 d::
e|fa de|fa ag/f/|gb ef|gb ba/g/|fa eg|d>e f>e|dB Af|e2 d:|

